images/metro.svg

<svg fill="none" height="17" viewBox="0 0 17 17" width="17" xmlns="http://www.w3.org/2000/svg"><path clip-rule="evenodd" d="m1.5 9.58333c0-3.90575 3.17758-7.08333 7.08333-7.08333 3.90577 0 7.08337 3.17758 7.08337 7.08333 0 1.74537-.6412 3.42247-1.8055 4.72277l-.3015.3368h-9.95271l-.30155-.3368c-1.1643-1.3003-1.80544-2.9774-1.80544-4.72277zm5.13744-3.81429 1.86813 2.33517 1.86813-2.33517 2.1929 5.48256-1.7259.5889-.93403-2.33519-1.4011 1.40109-1.4011-1.40109-.93407 2.33519-1.5703-.5889z" fill="#08274d" fill-opacity=".3" fill-rule="evenodd"/></svg>

<svg width="17" height="17" viewBox="0 0 17 17" fill="none" xmlns="http://www.w3.org/2000/svg">
<path fill-rule="evenodd" clip-rule="evenodd" d="M1.5 9.58333C1.5 5.67758 4.67758 2.5 8.58333 2.5C12.4891 2.5 15.6667 5.67758 15.6667 9.58333C15.6667 11.3287 15.0255 13.0058 13.8612 14.3061L13.5597 14.6429H3.60699L3.30544 14.3061C2.14114 13.0058 1.5 11.3287 1.5 9.58333ZM6.63744 5.76904L8.50557 8.10421L10.3737 5.76904L12.5666 11.2516L10.8407 11.8405L9.90667 9.50531L8.50557 10.9064L7.10447 9.50531L6.1704 11.8405L4.6001 11.2516L6.63744 5.76904Z" fill="#08274D" fill-opacity="0.3"/>
</svg>
